X: 1
T: Little Boy, Where'd You get Your Britches?
T: Little Boy, Little Boy
R: reel
O: Clyde Davenport (b. 1921, Monticello, Ky.)
D: Appalachian Center Series AC 002, Clyde Davenport - Puncheon Camps (1992)
F: https://www.slippery-hill.com/recording/little-boy-whered-you-get-your-britches
F: https://tunearch.org/wiki/Little_Boy_Where%27d_You_Get_Your_Britches%3F 2021-2-16
Z: Transcribed by Andrew Kuntz
M: C|
L: 1/8
K: G
|: Bd2e dd3- | ddgd ed3 | "*"ddga g2dc | BGAc BG-[G2B2] :|
|: GFED C2[C2E2] | EGED B,D3 | GFED C2 [C2E2] | DEDC B,D3 :|
P: Substitution
"*"ddgd g2 dc | 
